X:1
T:The Raven He Feedeth
T:The Raven He Feedeth
T:Lewis Edgar Jones
T:Lewis Edgar Jones, 1898
T:Public Domain Courtesy of the Cyber Hymnal™
T:Public Domain Courtesy of the Cyber Hymnal™
C:Lewis Edgar Jones
Z:Public Domain
Z:Courtesy of the Cyber Hymnal™
%%score ( 1 2 ) ( 3 4 )
L:1/8
Q:1/4=140
M:3/4
K:Db
V:1 treble 
V:2 treble 
V:3 bass 
V:4 bass 
V:1
 [FA]2 | [FA]2 [DF]2 [EG]2 | [FA]2 [GB]2 [DF]2 | [FA]3 [EG] [DF]2 | [CG]4 [EG]2 | %5
w: 1.~In|ten- der com-|pas- sion and|won- der- ful|love, The|
w: 2.~His|arm is a-|bun- dant- ly|a- ble to|save, His|
w: 3.~No|need have I|ev- er to|trou- ble my|breast, Or|
 [EG]2 [CE]2 [DF]2 | [EG]2 [FA]2 [EG]2 | ([DF]6 | [FA]4) [FA]2 | [GB]2 [GB]2 [GB]2 | %10
w: Fa- ther looks|down from on|high;|* He|know- eth the|
w: eye is a|guide to my|feet;|* Since|love sought and|
w: fear what the|mor- row may|bring;|* The|heart of the|
 G2 [Ac]2 [GB]2 | [FA]3 [DF] [EG]2 | [FA]4 [DF]2 | [CE]2 [CE]2 [CA]2 | [D=G]2 [CA]2 [DB]2 | %15
w: ra- ven hath|need of its|food, And|hear- eth in|mer- cy its|
w: found me, I|con- stant- ly|dwell With|Him in com-|pan- ion- ship|
w: Fa- ther is|plan- ning my|way, And|I am the|child of a|
 [CA]6- | [CA]4 ||"^Refrain" [GA]2 | [FA]3 [=E=G] [FA]2 | [GB]2 [FA]2 [DF]2 | [DF]3 [DE] D2 | %21
w: cry.||||||
w: sweet.||The|ra- ven He|feed- eth, then|why should I|
w: king.||||||
 [CE]4 [CE][DF] | [EG]3 [=DF] [EG]2 | [Gc]2 [GB]2 [FA]2 | [CA]3 [CE] [C=E]2 | [DF]4 [DF]2 | %26
w: |||||
w: fear? To the|heart of the|Fa- ther His|child- ren are|dear; So,|
w: |||||
 [DF]3 [DF] [DF]2 | [DB]2 [DF]2 [FB]2 | [=GB]2 [Gc]2 [Gd]2 | [Ac]4 [Ge]2 | [Fd]2 [FA]2 [Fd]2 | %31
w: |||||
w: if the way|dark- ens or|storms ga- ther|o’er, I’ll|sim- ply look|
w: |||||
 [Ac]2 !fermata![GB]2 [DG]2 | [DF]2 [CG]3 [CE] | D4 |] %34
w: |||
w: up- ward and|trust Him the|more.|
w: |||
V:2
 x2 | x6 | x6 | x6 | x6 | x6 | x6 | x6 | x6 | x6 | G2 x4 | x6 | x6 | x6 | x6 | x6 | x4 || x2 | x6 | %19
 x6 | x4 D2 | x6 | x6 | x6 | x6 | x6 | x6 | x6 | x6 | x6 | F2 x4 | x6 | x6 | D4 |] %34
V:3
 [D,A,]2 | [D,A,]2 [D,A,]2 [D,A,]2 | [D,D]2 [D,D]2 [D,A,]2 | [A,,A,]3 [A,,A,] [A,,A,]2 | %4
 [A,,A,]4 [A,,A,]2 | [A,,A,]2 [A,,A,]2 [A,,A,]2 | [A,,A,]2 [A,,D]2 [A,,A,]2 | ([D,A,]6 | %8
 [D,D]4) [D,D]2 | [G,D]2 [G,D]2 [G,D]2 | [G,B,]2 [G,D]2 [G,D]2 | [D,D]3 [D,A,] [D,A,]2 | %12
 [D,D]4 [D,A,]2 | [E,A,]2 [E,A,]2 [E,A,]2 | [E,B,]2 [E,A,]2 [E,=G,]2 | [A,,A,]6- | [A,,A,]4 || %17
 [A,C]2 | [D,D]3 [D,D] [D,D]2 | [D,D]2 [D,D]2 [D,A,]2 | [D,A,]3 [D,G,] [D,F,]2 | %21
 [A,,A,]4 [A,,A,][A,,A,] | [A,,A,]3 [A,,A,] [A,,A,]2 | [A,,A,]2 [A,,A,]2 [A,,A,]2 | %24
 [A,,A,]3 [A,,A,] [A,,A,]2 | [D,A,]4 [D,A,]2 | [D,A,]3 [D,A,] [D,F,]2 | [B,,F,]2 [B,,B,]2 [B,,D]2 | %28
 [E,E]2 [E,E]2 [E,E]2 | [A,E]4 [A,C]2 | [D,D]2 [D,D]2 [D,D]2 | [G,D]2 !fermata![G,D]2 [G,B,]2 | %32
 A,2 [A,,A,]3 [A,,G,] | [D,F,]4 |] %34
V:4
 x2 | x6 | x6 | x6 | x6 | x6 | x6 | x6 | x6 | x6 | x6 | x6 | x6 | x6 | x6 | x6 | x4 || x2 | x6 | %19
 x6 | x6 | x6 | x6 | x6 | x6 | x6 | x6 | x6 | x6 | x6 | x6 | x6 | A,2 x4 | x4 |] %34

